Pods/ProtonCore-UIFoundations/libraries/UIFoundations/Sources/Assets.xcassets/Images/IconSet/ic-arrow-up-big-line.imageset/ic-arrow-up-big-line.svg

<svg width="24" height="24" viewBox="0 0 24 24" fill="none" xmlns="http://www.w3.org/2000/svg">
<path fill-rule="evenodd" clip-rule="evenodd" d="M9.75 9.81788V8.31788H8.25H7.22563L12 3.2536L16.7744 8.31788H15.75H14.25V9.81788V18.0349H9.75L9.75 9.81788ZM15.75 9.81788V11.3179V18.5974C15.75 19.1151 15.3303 19.5349 14.8125 19.5349H9.1875C8.66973 19.5349 8.25 19.1151 8.25 18.5974L8.25 11.3179V9.81788H6.75H5.92227C5.10029 9.81788 4.67626 8.83537 5.24012 8.23728L11.3178 1.79049C11.6879 1.39796 12.3121 1.39796 12.6821 1.79049L18.7599 8.23728C19.3237 8.83537 18.8997 9.81788 18.0777 9.81788H17.25H15.75ZM5.25 21.0015C4.83579 21.0015 4.5 21.3373 4.5 21.7515C4.5 22.1657 4.83579 22.5015 5.25 22.5015H18.75C19.1642 22.5015 19.5 22.1657 19.5 21.7515C19.5 21.3373 19.1642 21.0015 18.75 21.0015H5.25Z" fill="#0C0C14"/>
</svg>

<svg xmlns="http://www.w3.org/2000/svg" width="24" height="24" viewBox="0 0 24 24">
  <g class="ic-arrow-up-big-line">
    <path fill-rule="evenodd" d="M9.75 9.818v-1.5H7.226L12 3.254l4.774 5.064H14.25v9.717h-4.5V9.818Zm6 0v8.78c0 .517-.42.937-.938.937H9.189a.938.938 0 0 1-.938-.938v-8.78H5.922c-.822 0-1.246-.982-.682-1.58l6.078-6.447a.938.938 0 0 1 1.364 0l6.078 6.447c.564.598.14 1.58-.682 1.58H15.75ZM5.25 21.002a.75.75 0 0 0 0 1.5h13.5a.75.75 0 0 0 0-1.5H5.25Z" class="Icon"/>
  </g>
</svg>
